svgs/thin/blinds-open.svg

<svg xmlns="http://www.w3.org/2000/svg" viewBox="0 0 512 512"><!--! Font Awesome Pro 6.3.0 by @fontawesome - https://fontawesome.com License - https://fontawesome.com/license (Commercial License) Copyright 2023 Fonticons, Inc. --><path d="M480 0H32C14.33 0 0 14.33 0 32v32c0 17.67 14.33 32 32 32h104v160.8C113.3 260.6 96 280.2 96 304c0 26.51 21.49 48.12 48 48.12S192 330.5 192 304c0-23.77-17.32-43.37-40-47.19V96H480c17.67 0 32-14.33 32-32V32C512 14.33 497.7 0 480 0zM176 304c0 17.64-14.36 32-32 32s-32-14.36-32-32s14.36-32 32-32S176 286.4 176 304zM496 64c0 8.822-7.178 16-16 16H32C23.18 80 16 72.82 16 64V32c0-8.822 7.178-16 16-16h448c8.822 0 16 7.178 16 16V64zM504 176H192c-4.422 0-8 3.578-8 8S187.6 192 192 192h312C508.4 192 512 188.4 512 184S508.4 176 504 176zM8 192H96c4.422 0 8-3.578 8-8S100.4 176 96 176H8C3.578 176 0 179.6 0 184S3.578 192 8 192zM504 336H224c-4.422 0-8 3.578-8 8S219.6 352 224 352h280c4.422 0 8-3.578 8-8S508.4 336 504 336zM8 352H64c4.422 0 8-3.578 8-8S68.42 336 64 336H8C3.578 336 0 339.6 0 344S3.578 352 8 352zM504 496H8C3.578 496 0 499.6 0 504S3.578 512 8 512h496c4.422 0 8-3.578 8-8S508.4 496 504 496z"/></svg>

<svg xmlns="http://www.w3.org/2000/svg" viewBox="0 0 512 512"><!-- Font Awesome Pro 6.0.0-alpha2 by @fontawesome - https://fontawesome.com License - https://fontawesome.com/license (Commercial License) --><path d="M480 0H32C14.326 0 0 14.326 0 32V64C0 81.674 14.326 96 32 96H136V256.807C113.32 260.631 96 280.23 96 304C96 330.51 117.49 352 144 352S192 330.51 192 304C192 280.23 174.68 260.631 152 256.807V96H480C497.674 96 512 81.674 512 64V32C512 14.326 497.674 0 480 0ZM176 304C176 321.645 161.645 336 144 336S112 321.645 112 304S126.355 272 144 272S176 286.355 176 304ZM496 64C496 72.822 488.822 80 480 80H32C23.178 80 16 72.822 16 64V32C16 23.178 23.178 16 32 16H480C488.822 16 496 23.178 496 32V64ZM504 176H192C187.578 176 184 179.578 184 184S187.578 192 192 192H504C508.422 192 512 188.422 512 184S508.422 176 504 176ZM8 192H96C100.422 192 104 188.422 104 184S100.422 176 96 176H8C3.578 176 0 179.578 0 184S3.578 192 8 192ZM504 336H224C219.578 336 216 339.578 216 344S219.578 352 224 352H504C508.422 352 512 348.422 512 344S508.422 336 504 336ZM8 352H64C68.422 352 72 348.422 72 344S68.422 336 64 336H8C3.578 336 0 339.578 0 344S3.578 352 8 352ZM504 496H8C3.578 496 0 499.578 0 504S3.578 512 8 512H504C508.422 512 512 508.422 512 504S508.422 496 504 496Z"/></svg>
